svg/u1f1f8.svg

<svg viewBox="0 0 128 128" xmlns="http://www.w3.org/2000/svg">
  <path d="m94.9 71.35c-8.08-7.63-21.82-13.99-30.91-18.2-1.54-0.71-2.93-1.35-4.11-1.92-3.43-1.65-8.12-6.22-6.1-11.47 1.36-3.55 4.81-5.34 10.27-5.34 1.75 0 3.67 0.2 5.72 0.58 7.12 1.33 12.52 3.99 15.58 5.5 0.38 0.19 0.82 0.21 1.22 0.07 0.39-0.15 0.72-0.45 0.89-0.84l7.01-15.81c0.31-0.69 0.07-1.51-0.57-1.93-4.94-3.28-17.27-8.15-30.97-8.15-1.98 0-3.95 0.1-5.87 0.3-10.92 1.12-21.86 4.03-27.92 17.64-3.78 8.47-3.77 18.01 0.01 24.89 4.04 7.51 10.66 10.87 19.04 15.11l1.08 0.55c6.05 3.02 13.3 6.38 18.07 8.59 7.05 3.4 9.66 9.44 8.04 13.08-2.61 5.87-8.38 7.16-18.36 4.33-8.81-2.39-16.94-9.14-19.21-11.15-0.34-0.3-0.79-0.44-1.25-0.38-0.45 0.06-0.85 0.32-1.1 0.69l-10.86 16.65c-0.41 0.63-0.32 1.46 0.22 1.98 5.63 5.43 10.22 8.59 18.17 12.5 5.35 2.63 13.18 4.21 20.95 4.21 8.12 0 27.95-1.88 36.65-19.26 5.55-11.12 3.48-22.84-5.69-32.22z" fill="#40C0E7"/>
</svg>

<svg viewBox="0 0 128 128" xmlns="http://www.w3.org/2000/svg">
  <defs/>
  <path d="M94.9,71.35 C86.82,63.72 73.08,57.36 63.99,53.15 C62.45,52.44 61.06,51.8 59.88,51.23 C56.45,49.58 51.76,45.01 53.78,39.76 C55.14,36.21 58.59,34.42 64.05,34.42 C65.8,34.42 67.72,34.62 69.77,35 C76.89,36.33 82.29,38.99 85.35,40.5 C85.73,40.69 86.17,40.71 86.57,40.57 C86.96,40.42 87.29,40.12 87.46,39.73 L94.47,23.92 C94.78,23.23 94.54,22.41 93.9,21.99 C88.96,18.71 76.63,13.84 62.93,13.84 C60.95,13.84 58.98,13.94 57.06,14.14 C46.14,15.26 35.2,18.17 29.14,31.78 C25.36,40.25 25.37,49.79 29.15,56.67 C33.19,64.18 39.81,67.54 48.19,71.78 L49.27,72.33 C55.32,75.35 62.57,78.71 67.34,80.92 C74.39,84.32 77,90.36 75.38,94 C72.77,99.87 67,101.16 57.02,98.33 C48.21,95.94 40.08,89.19 37.81,87.18 C37.47,86.88 37.02,86.74 36.56,86.8 C36.11,86.86 35.71,87.12 35.46,87.49 L24.6,104.14 C24.19,104.77 24.28,105.6 24.82,106.12 C30.45,111.55 35.04,114.71 42.99,118.62 C48.34,121.25 56.17,122.83 63.94,122.83 C72.06,122.83 91.89,120.95 100.59,103.57 C106.14,92.45 104.07,80.73 94.9,71.35 Z" fill="#40C0E7"/>
</svg>
